Papirus-Dark/16x16/actions/transform-affect-gradient.svg

<?xml version="1.0" encoding="UTF-8" standalone="no"?>
<svg xmlns:osb="http://www.openswatchbook.org/uri/2009/osb" xmlns:dc="http://purl.org/dc/elements/1.1/" xmlns:cc="http://creativecommons.org/ns#" xmlns:rdf="http://www.w3.org/1999/02/22-rdf-syntax-ns#" xmlns:svg="http://www.w3.org/2000/svg" xmlns="http://www.w3.org/2000/svg" width="16" height="16" viewBox="0 0 16 16" id="svg6394" version="1.1">
    <defs id="defs6396">
        <linearGradient id="linearGradient19282" osb:paint="solid" gradientTransform="matrix(-0.40801424,2.7359005,1.4465395,0.18903615,2588.4859,828.26016)">
            <stop style="stop-color:#ffffff;stop-opacity:1;" offset="0" id="stop19284"/>
        </linearGradient>
        <linearGradient id="linearGradient19282-3" osb:paint="solid" gradientTransform="matrix(-2.7359006,0.40801425,-0.18903616,-1.4465395,-804.26018,-2564.486)">
            <stop style="stop-color:#ffffff;stop-opacity:1;" offset="0" id="stop19284-6"/>
        </linearGradient>
        <linearGradient gradientTransform="matrix(-2.73658,0.4081035,-0.1890831,-1.446856,-1254.4599,-3933.7766)" osb:paint="solid" id="linearGradient19282-36">
            <stop id="stop19284-7" offset="0" style="stop-color:#666666;stop-opacity:1;"/>
        </linearGradient>
    </defs>
    <metadata id="metadata6399">
        <rdf:RDF>
            <cc:Work rdf:about="">
                <dc:format>
                    image/svg+xml
                </dc:format>
                <dc:type rdf:resource="http://purl.org/dc/dcmitype/StillImage"/>
                <dc:title/>
            </cc:Work>
        </rdf:RDF>
    </metadata>
    <g transform="translate(-673,-243.961)" id="transform-affect-gradient">
        <path id="path12993" d="m 675,245.961 12,0 0,6 -12,0 0,-6 z" style="color:#000000;opacity:0.3;fill:#ffffff;fill-rule:evenodd;stroke-width:0.69999999;fill-opacity:1"/>
        <path id="path12995" d="m 675,248.961 8,0 0,4 -8,0 0,-4 z" style="color:#000000;opacity:0.3;fill:#ffffff;fill-rule:evenodd;stroke-width:0.69999999;fill-opacity:1"/>
        <path id="path4430" transform="translate(673,243.961)" d="M 2 2 L 2 3 L 2.5 3 L 13 3 L 13 7.5 L 13 8 L 14 8 L 14 7.5 L 14 2 L 2.5 2 L 2 2 z M 2 5 L 2 6 L 2.5 6 L 9 6 L 9 8.5 L 9 9 L 10 9 L 10 8.5 L 10 5 L 2.5 5 L 2 5 z M 11.007812 9.0136719 L 11.007812 11.007812 L 9.0058594 11.007812 L 9.0058594 12.003906 L 11.007812 12.003906 L 11.007812 14 L 14.011719 11.505859 L 11.007812 9.0136719 z M 4 10.992188 L 4 12.021484 L 5 12.021484 L 5 10.992188 L 4 10.992188 z M 6.0175781 10.992188 L 6.0175781 12.021484 L 6.5019531 12.021484 L 7.5039062 12.021484 L 7.9882812 12.021484 L 7.9882812 10.992188 L 7.5039062 10.992188 L 6.5019531 10.992188 L 6.0175781 10.992188 z " style="color:#000000;font-style:normal;font-variant:normal;font-weight:normal;font-stretch:normal;font-size:medium;line-height:normal;font-family:sans-serif;text-indent:0;text-align:start;text-decoration:none;text-decoration-line:none;text-decoration-style:solid;text-decoration-color:#000000;letter-spacing:normal;word-spacing:normal;text-transform:none;direction:ltr;block-progression:tb;writing-mode:lr-tb;baseline-shift:baseline;text-anchor:start;white-space:normal;clip-rule:nonzero;display:inline;overflow:visible;visibility:visible;opacity:0.72;isolation:auto;mix-blend-mode:normal;color-interpolation:sRGB;color-interpolation-filters:linearRGB;solid-color:#000000;solid-opacity:1;fill:#ffffff;fill-opacity:1;fill-rule:nonzero;stroke:none;stroke-width:1px;stroke-linecap:square;stroke-linejoin:miter;stroke-miterlimit:4;stroke-dasharray:none;stroke-dashoffset:0;stroke-opacity:1;color-rendering:auto;image-rendering:auto;shape-rendering:auto;text-rendering:auto;enable-background:accumulate"/>
    </g>
    <g transform="matrix(0.695835,0,0,0.741921,-190.82777,-226.2737)" id="transform-affect-stroke">
        <path id="path5760" d="m 670.8773,245.7 14.3712,0 0,5.3914" style="fill:none;stroke:#000000;stroke-width:2.78354359;stroke-linecap:square"/>
        <path id="path5762" d="m 670.1587,250.4175 10.0599,0 0,2.6957" style="fill:none;stroke:#000000;stroke-width:1.39177203px;stroke-linecap:square"/>
        <g id="g5772">
            <path id="path12910" d="m 682.3742,253.78713 0,2.69567 -2.8742,0 0,1.3479 2.8742,0 0,2.69569 4.3114,-3.36963 -4.3114,-3.36963 z" style="fill:#000000;fill-rule:evenodd"/>
            <path style="fill:none;stroke:#000000;stroke-width:1.39177203px;stroke-linecap:square" d="m 505.9072,37.19576 1.4371,0" id="path5764" transform="translate(170,219.961)"/>
            <path style="fill:none;stroke:#000000;stroke-width:1.39177203px" d="m 672.3144,257.1568 1.4371,0" id="path5770"/>
        </g>
    </g>
</svg>

<?xml version="1.0" encoding="UTF-8" standalone="no"?>
<svg id="svg6394" xmlns:rdf="http://www.w3.org/1999/02/22-rdf-syntax-ns#" xmlns="http://www.w3.org/2000/svg" xmlns:osb="http://www.openswatchbook.org/uri/2009/osb" height="16" width="16" version="1.1" xmlns:cc="http://creativecommons.org/ns#" viewBox="0 0 16 16" xmlns:dc="http://purl.org/dc/elements/1.1/">
 <metadata id="metadata6399">
  <rdf:RDF>
   <cc:Work rdf:about="">
    <dc:format>image/svg+xml</dc:format>
    <dc:type rdf:resource="http://purl.org/dc/dcmitype/StillImage"/>
    <dc:title/>
   </cc:Work>
  </rdf:RDF>
 </metadata>
 <g id="transform-affect-gradient" transform="translate(-673 -243.96)">
  <path id="path12993" opacity="0.3" fill="#d3dae3" style="fill:#d3dae3" d="m675 245.96h12v6h-12v-6z" fill-rule="evenodd" stroke-width="0.7"/>
  <path id="path12995" opacity="0.3" fill="#d3dae3" style="fill:#d3dae3" d="m675 248.96h8v4h-8v-4z" fill-rule="evenodd" stroke-width="0.7"/>
  <path id="path4430" opacity="1" fill="#d3dae3" style="fill-rendering:auto;text-decoration-fill:#d3dae3;fill:#d3dae3;isolation:auto;mix-blend-mode:normal;shape-rendering:auto;solid-fill:#d3dae3;block-progression:tb;text-decoration-line:none;text-decoration-style:solid;image-rendering:auto;white-space:normal;text-indent:0;text-transform:none" d="m2 2v1h0.5 10.5v4.5 0.5h1v-0.5-5.5h-11.5-0.5zm0 3v1h0.5 6.5v2.5 0.5h1v-0.5-3.5h-7.5-0.5zm9.008 4.0137v1.9943h-2.0021v0.996h2.0021v1.996l3.004-2.494-3.004-2.4923zm-7.008 1.9783v1.029h1v-1.029h-1zm2.0176 0v1.029h0.4844 1.0019 0.4844v-1.029h-0.4844-1.0019-0.4844z" transform="translate(673 243.96)"/>
 </g>
 <g id="transform-affect-stroke" transform="matrix(.69584 0 0 .74192 -190.83 -226.27)">
  <path id="path5760" d="m670.88 245.7h14.371v5.3914" stroke="#d3dae3" stroke-linecap="square" stroke-width="2.7835" fill="none"/>
  <path id="path5762" d="m670.16 250.42h10.06v2.6957" stroke="#d3dae3" stroke-linecap="square" stroke-width="1.3918px" fill="none"/>
  <g id="g5772">
   <path id="path12910" fill-rule="evenodd" d="m682.37 253.79v2.6957h-2.8742v1.3479h2.8742v2.6957l4.3114-3.3696-4.3114-3.3696z"/>
   <path id="path5764" d="m505.91 37.196h1.4371" transform="translate(170 219.96)" stroke="#d3dae3" stroke-linecap="square" stroke-width="1.3918px" fill="none"/>
   <path id="path5770" d="m672.31 257.16h1.4371" stroke="#d3dae3" stroke-width="1.3918px" fill="none"/>
  </g>
 </g>
</svg>
